static/img/kroki/290b554018b90c4dec086c6cf3bcfc41.svg

<?xml version="1.0" encoding="us-ascii" standalone="no"?><svg xmlns="http://www.w3.org/2000/svg" xmlns:xlink="http://www.w3.org/1999/xlink" contentStyleType="text/css" height="573px" preserveAspectRatio="none" style="width:558px;height:573px;" version="1.1" viewBox="0 0 558 573" width="558px" zoomAndPan="magnify"><defs/><g><!--class ai_job--><g id="elem_ai_job"><rect codeLine="23" fill="#3D176E" height="39.7891" id="ai_job" rx="2.5" ry="2.5" style="stroke:#000D19;stroke-width:0.5;" width="91" x="266.5" y="367.37"/><ellipse cx="281.5" cy="387.2645" fill="#ADD1B2" rx="11" ry="11" style="stroke:#181818;stroke-width:1.0;"/><path d="M284.4688,392.9052 Q283.8906,393.202 283.25,393.3427 Q282.6094,393.4989 281.9063,393.4989 Q279.4063,393.4989 278.0781,391.8583 Q276.7656,390.202 276.7656,387.077 Q276.7656,383.952 278.0781,382.2958 Q279.4063,380.6395 281.9063,380.6395 Q282.6094,380.6395 283.25,380.7958 Q283.9063,380.952 284.4688,381.2489 L284.4688,383.9677 Q283.8438,383.3895 283.25,383.1239 Q282.6563,382.8427 282.0313,382.8427 Q280.6875,382.8427 280,383.9208 Q279.3125,384.9833 279.3125,387.077 Q279.3125,389.1708 280,390.2489 Q280.6875,391.3114 282.0313,391.3114 Q282.6563,391.3114 283.25,391.0458 Q283.8438,390.7645 284.4688,390.1864 L284.4688,392.9052 Z " fill="#000000"/><text fill="#D9B8FF" font-family="Helvetica" font-size="17" lengthAdjust="spacing" textLength="49" x="300.5" y="393.1498">ai_job</text></g><!--class ai_resource--><g id="elem_ai_resource"><rect codeLine="26" fill="#3D176E" height="39.7891" id="ai_resource" rx="2.5" ry="2.5" style="stroke:#000D19;stroke-width:0.5;" width="137" x="244.5" y="167.79"/><ellipse cx="259.5" cy="187.6845" fill="#ADD1B2" rx="11" ry="11" style="stroke:#181818;stroke-width:1.0;"/><path d="M262.4688,193.3252 Q261.8906,193.622 261.25,193.7627 Q260.6094,193.9189 259.9063,193.9189 Q257.4063,193.9189 256.0781,192.2783 Q254.7656,190.622 254.7656,187.497 Q254.7656,184.372 256.0781,182.7158 Q257.4063,181.0595 259.9063,181.0595 Q260.6094,181.0595 261.25,181.2158 Q261.9063,181.372 262.4688,181.6689 L262.4688,184.3877 Q261.8438,183.8095 261.25,183.5439 Q260.6563,183.2627 260.0313,183.2627 Q258.6875,183.2627 258,184.3408 Q257.3125,185.4033 257.3125,187.497 Q257.3125,189.5908 258,190.6689 Q258.6875,191.7314 260.0313,191.7314 Q260.6563,191.7314 261.25,191.4658 Q261.8438,191.1845 262.4688,190.6064 L262.4688,193.3252 Z " fill="#000000"/><text fill="#D9B8FF" font-family="Helvetica" font-size="17" lengthAdjust="spacing" textLength="95" x="278.5" y="193.5698">ai_resource</text></g><!--class azure_machine_learning_job--><g id="elem_azure_machine_learning_job"><rect codeLine="29" fill="#3D176E" height="39.7891" id="azure_machine_learning_job" rx="2.5" ry="2.5" style="stroke:#000D19;stroke-width:0.5;" width="281" x="171.5" y="528.16"/><ellipse cx="186.5" cy="548.0545" fill="#ADD1B2" rx="11" ry="11" style="stroke:#181818;stroke-width:1.0;"/><path d="M189.4688,553.6952 Q188.8906,553.992 188.25,554.1327 Q187.6094,554.2889 186.9063,554.2889 Q184.4063,554.2889 183.0781,552.6483 Q181.7656,550.992 181.7656,547.867 Q181.7656,544.742 183.0781,543.0858 Q184.4063,541.4295 186.9063,541.4295 Q187.6094,541.4295 188.25,541.5858 Q188.9063,541.742 189.4688,542.0389 L189.4688,544.7577 Q188.8438,544.1795 188.25,543.9139 Q187.6563,543.6327 187.0313,543.6327 Q185.6875,543.6327 185,544.7108 Q184.3125,545.7733 184.3125,547.867 Q184.3125,549.9608 185,551.0389 Q185.6875,552.1014 187.0313,552.1014 Q187.6563,552.1014 188.25,551.8358 Q188.8438,551.5545 189.4688,550.9764 L189.4688,553.6952 Z " fill="#000000"/><text fill="#D9B8FF" font-family="Helvetica" font-size="17" lengthAdjust="spacing" textLength="239" x="205.5" y="553.9398">azure_machine_learning_job</text></g><!--class azure_proxy_resource--><g id="elem_azure_proxy_resource"><rect codeLine="32" fill="#3D176E" height="39.7891" id="azure_proxy_resource" rx="2.5" ry="2.5" style="stroke:#000D19;stroke-width:0.5;" width="224" x="7" y="367.37"/><ellipse cx="22" cy="387.2645" fill="#ADD1B2" rx="11" ry="11" style="stroke:#181818;stroke-width:1.0;"/><path d="M24.9688,392.9052 Q24.3906,393.202 23.75,393.3427 Q23.1094,393.4989 22.4063,393.4989 Q19.9063,393.4989 18.5781,391.8583 Q17.2656,390.202 17.2656,387.077 Q17.2656,383.952 18.5781,382.2958 Q19.9063,380.6395 22.4063,380.6395 Q23.1094,380.6395 23.75,380.7958 Q24.4063,380.952 24.9688,381.2489 L24.9688,383.9677 Q24.3438,383.3895 23.75,383.1239 Q23.1563,382.8427 22.5313,382.8427 Q21.1875,382.8427 20.5,383.9208 Q19.8125,384.9833 19.8125,387.077 Q19.8125,389.1708 20.5,390.2489 Q21.1875,391.3114 22.5313,391.3114 Q23.1563,391.3114 23.75,391.0458 Q24.3438,390.7645 24.9688,390.1864 L24.9688,392.9052 Z " fill="#000000"/><text fill="#D9B8FF" font-family="Helvetica" font-size="17" lengthAdjust="spacing" textLength="182" x="41" y="393.1498">azure_proxy_resource</text></g><!--class microsoft_resource--><g id="elem_microsoft_resource"><rect codeLine="35" fill="#3D176E" height="39.7891" id="microsoft_resource" rx="2.5" ry="2.5" style="stroke:#000D19;stroke-width:0.5;" width="200" x="351" y="267.58"/><ellipse cx="366" cy="287.4745" fill="#ADD1B2" rx="11" ry="11" style="stroke:#181818;stroke-width:1.0;"/><path d="M368.9688,293.1152 Q368.3906,293.412 367.75,293.5527 Q367.1094,293.7089 366.4063,293.7089 Q363.9063,293.7089 362.5781,292.0683 Q361.2656,290.412 361.2656,287.287 Q361.2656,284.162 362.5781,282.5058 Q363.9063,280.8495 366.4063,280.8495 Q367.1094,280.8495 367.75,281.0058 Q368.4063,281.162 368.9688,281.4589 L368.9688,284.1777 Q368.3438,283.5995 367.75,283.3339 Q367.1563,283.0527 366.5313,283.0527 Q365.1875,283.0527 364.5,284.1308 Q363.8125,285.1933 363.8125,287.287 Q363.8125,289.3808 364.5,290.4589 Q365.1875,291.5214 366.5313,291.5214 Q367.1563,291.5214 367.75,291.2558 Q368.3438,290.9745 368.9688,290.3964 L368.9688,293.1152 Z " fill="#000000"/><text fill="#D9B8FF" font-family="Helvetica" font-size="17" lengthAdjust="spacing" textLength="158" x="385" y="293.3598">microsoft_resource</text></g><!--class resource--><g id="elem_resource"><rect codeLine="38" fill="#3D176E" height="39.7891" id="resource" rx="2.5" ry="2.5" style="stroke:#000D19;stroke-width:0.5;" width="113" x="325.5" y="7"/><ellipse cx="340.5" cy="26.8945" fill="#ADD1B2" rx="11" ry="11" style="stroke:#181818;stroke-width:1.0;"/><path d="M343.4688,32.5352 Q342.8906,32.832 342.25,32.9727 Q341.6094,33.1289 340.9063,33.1289 Q338.4063,33.1289 337.0781,31.4883 Q335.7656,29.832 335.7656,26.707 Q335.7656,23.582 337.0781,21.9258 Q338.4063,20.2695 340.9063,20.2695 Q341.6094,20.2695 342.25,20.4258 Q342.9063,20.582 343.4688,20.8789 L343.4688,23.5977 Q342.8438,23.0195 342.25,22.7539 Q341.6563,22.4727 341.0313,22.4727 Q339.6875,22.4727 339,23.5508 Q338.3125,24.6133 338.3125,26.707 Q338.3125,28.8008 339,29.8789 Q339.6875,30.9414 341.0313,30.9414 Q341.6563,30.9414 342.25,30.6758 Q342.8438,30.3945 343.4688,29.8164 L343.4688,32.5352 Z " fill="#000000"/><text fill="#D9B8FF" font-family="Helvetica" font-size="17" lengthAdjust="spacing" textLength="71" x="359.5" y="32.7798">resource</text></g><!--reverse link ai_resource to ai_job--><g id="link_ai_resource_ai_job"><path codeLine="41" d="M312.8095,225.9898 C312.6195,263.7598 312.29,329.05 312.1,366.88 " fill="none" id="ai_resource-backto-ai_job" style="stroke:#FFAF37;stroke-width:2.0;"/><polygon fill="none" points="312.9,207.99,306.8095,225.9596,318.8094,226.02,312.9,207.99" style="stroke:#FFAF37;stroke-width:2.0;"/></g><!--reverse link resource to ai_resource--><g id="link_resource_ai_resource"><path codeLine="42" d="M366.5027,63.5572 C353.2327,94.0772 334.63,136.9 321.35,167.47 " fill="none" id="resource-backto-ai_resource" style="stroke:#FFAF37;stroke-width:2.0;"/><polygon fill="none" points="373.68,47.05,361.0003,61.1648,372.0051,65.9496,373.68,47.05" style="stroke:#FFAF37;stroke-width:2.0;"/></g><!--reverse link ai_job to azure_machine_learning_job--><g id="link_ai_job_azure_machine_learning_job"><path codeLine="43" d="M312,425.42 C312,455.94 312,497.27 312,527.83 " fill="none" id="ai_job-backto-azure_machine_learning_job" style="stroke:#FFAF37;stroke-width:2.0;"/><polygon fill="none" points="312,407.42,306,425.42,318,425.42,312,407.42" style="stroke:#FFAF37;stroke-width:2.0;"/></g><!--reverse link azure_proxy_resource to azure_machine_learning_job--><g id="link_azure_proxy_resource_azure_machine_learning_job"><path codeLine="44" d="M156.1808,418.8554 C193.2808,449.3754 251.49,497.27 288.64,527.83 " fill="none" id="azure_proxy_resource-backto-azure_machine_learning_job" style="stroke:#FFAF37;stroke-width:2.0;"/><polygon fill="none" points="142.28,407.42,152.369,423.489,159.9926,414.2218,142.28,407.42" style="stroke:#FFAF37;stroke-width:2.0;"/></g><!--reverse link microsoft_resource to azure_machine_learning_job--><g id="link_microsoft_resource_azure_machine_learning_job"><path codeLine="45" d="M432.2577,323.3447 C406.6177,371.0447 348.28,479.56 322.42,527.66 " fill="none" id="microsoft_resource-backto-azure_machine_learning_job" style="stroke:#FFAF37;stroke-width:2.0;"/><polygon fill="none" points="440.78,307.49,426.9728,320.5039,437.5426,326.1854,440.78,307.49" style="stroke:#FFAF37;stroke-width:2.0;"/></g><!--reverse link resource to microsoft_resource--><g id="link_resource_microsoft_resource"><path codeLine="46" d="M391.7104,64.3016 C404.4404,112.0116 432.99,218.98 445.83,267.08 " fill="none" id="resource-backto-microsoft_resource" style="stroke:#FFAF37;stroke-width:2.0;"/><polygon fill="none" points="387.07,46.91,385.9132,65.8484,397.5076,62.7548,387.07,46.91" style="stroke:#FFAF37;stroke-width:2.0;"/></g><!--SRC=[XP1DJm8n48Rl_HLDE9E0H8742v8OlH0ZtibiEsKhk-rcsXL1_U_oiMZPBkprVP-PFjDKI-IO5tx3SymJ9CVSIfi2278-8RBhgSqiyOvIe0R3UlbeZMy5Pf0ZVyBi0xqMK2VUKYrM1ftZDq7r06Ar95iQULpl2OpRLMXyG4qpS6xYFUcaz1Z8o74oKgfErfTs1h8_lCC8ioIHAgJNwyd-k8wqFdNrxZzYhhV8- -6dpQp7I3Dwua1TjTmJWMHqwAc_wFW2KcgpvBT1zdfq8eDqbizJa7QzfnLaBdp6UIIqVbFWDBeAnoEfXetmyoMOYVtNST2BTvlmByP-_XD2PqiIU1PlIy953YBL1XSP0fcTPZHye0godvl6BRaMP9rLlh4zpqAH- -zkjrl9iZWz9QmwfoekAhD6pzQf1llMcHePhs2_]--></g></svg>

<svg xmlns="http://www.w3.org/2000/svg" width="558" height="573" viewBox="0 0 558 573"><rect width="91" height="39.789" x="266.5" y="367.37" fill="#3D176E" rx="2.5" ry="2.5" style="stroke:#000d19;stroke-width:.5"/><circle cx="281.5" cy="387.264" r="11" fill="#ADD1B2" style="stroke:#181818;stroke-width:1"/><path d="M284.469 392.905q-.578.297-1.219.438-.64.156-1.344.156-2.5 0-3.828-1.64-1.312-1.657-1.312-4.782t1.312-4.781q1.328-1.656 3.828-1.656.703 0 1.344.156.656.156 1.219.453v2.719q-.625-.579-1.219-.844-.594-.281-1.219-.281-1.344 0-2.031 1.078-.687 1.062-.687 3.156t.687 3.172q.688 1.062 2.031 1.062.625 0 1.219-.265.594-.281 1.219-.86z"/><text x="300.5" y="393.15" fill="#D9B8FF" font-family="Helvetica" font-size="17" textLength="49">ai_job</text><rect width="137" height="39.789" x="244.5" y="167.79" fill="#3D176E" rx="2.5" ry="2.5" style="stroke:#000d19;stroke-width:.5"/><circle cx="259.5" cy="187.685" r="11" fill="#ADD1B2" style="stroke:#181818;stroke-width:1"/><path d="M262.469 193.325q-.578.297-1.219.438-.64.156-1.344.156-2.5 0-3.828-1.64-1.312-1.657-1.312-4.782t1.312-4.781q1.328-1.656 3.828-1.656.703 0 1.344.156.656.156 1.219.453v2.719q-.625-.578-1.219-.844-.594-.281-1.219-.281-1.344 0-2.031 1.078-.687 1.062-.687 3.156t.687 3.172q.688 1.062 2.031 1.062.625 0 1.219-.265.594-.281 1.219-.86z"/><text x="278.5" y="193.57" fill="#D9B8FF" font-family="Helvetica" font-size="17" textLength="95">ai_resource</text><rect width="281" height="39.789" x="171.5" y="528.16" fill="#3D176E" rx="2.5" ry="2.5" style="stroke:#000d19;stroke-width:.5"/><circle cx="186.5" cy="548.054" r="11" fill="#ADD1B2" style="stroke:#181818;stroke-width:1"/><path d="M189.469 553.695q-.578.297-1.219.438-.64.156-1.344.156-2.5 0-3.828-1.64-1.312-1.657-1.312-4.782t1.312-4.781q1.328-1.657 3.828-1.657.703 0 1.344.157.656.156 1.219.453v2.719q-.625-.579-1.219-.844-.594-.281-1.219-.281-1.344 0-2.031 1.078-.687 1.062-.687 3.156t.687 3.172q.688 1.062 2.031 1.062.625 0 1.219-.265.594-.282 1.219-.86z"/><text x="205.5" y="553.94" fill="#D9B8FF" font-family="Helvetica" font-size="17" textLength="239">azure_machine_learning_job</text><rect width="224" height="39.789" x="7" y="367.37" fill="#3D176E" rx="2.5" ry="2.5" style="stroke:#000d19;stroke-width:.5"/><circle cx="22" cy="387.264" r="11" fill="#ADD1B2" style="stroke:#181818;stroke-width:1"/><path d="M24.969 392.905q-.578.297-1.219.438-.64.156-1.344.156-2.5 0-3.828-1.64-1.312-1.657-1.312-4.782t1.312-4.781q1.328-1.656 3.828-1.656.703 0 1.344.156.656.156 1.219.453v2.719q-.625-.579-1.219-.844-.594-.281-1.219-.281-1.343 0-2.031 1.078-.687 1.062-.687 3.156t.687 3.172q.688 1.062 2.031 1.062.625 0 1.219-.265.594-.281 1.219-.86z"/><text x="41" y="393.15" fill="#D9B8FF" font-family="Helvetica" font-size="17" textLength="182">azure_proxy_resource</text><rect width="200" height="39.789" x="351" y="267.58" fill="#3D176E" rx="2.5" ry="2.5" style="stroke:#000d19;stroke-width:.5"/><circle cx="366" cy="287.474" r="11" fill="#ADD1B2" style="stroke:#181818;stroke-width:1"/><path d="M368.969 293.115q-.578.297-1.219.438-.64.156-1.344.156-2.5 0-3.828-1.64-1.312-1.657-1.312-4.782t1.312-4.781q1.328-1.656 3.828-1.656.703 0 1.344.156.656.156 1.219.453v2.719q-.625-.579-1.219-.844-.594-.281-1.219-.281-1.344 0-2.031 1.078-.687 1.062-.687 3.156t.687 3.172q.688 1.062 2.031 1.062.625 0 1.219-.265.594-.281 1.219-.86z"/><text x="385" y="293.36" fill="#D9B8FF" font-family="Helvetica" font-size="17" textLength="158">microsoft_resource</text><rect width="113" height="39.789" x="325.5" y="7" fill="#3D176E" rx="2.5" ry="2.5" style="stroke:#000d19;stroke-width:.5"/><circle cx="340.5" cy="26.895" r="11" fill="#ADD1B2" style="stroke:#181818;stroke-width:1"/><path d="M343.469 32.535q-.578.297-1.219.438-.64.156-1.344.156-2.5 0-3.828-1.64-1.312-1.657-1.312-4.782t1.312-4.781q1.328-1.656 3.828-1.656.703 0 1.344.156.656.156 1.219.453v2.719q-.625-.578-1.219-.844-.594-.281-1.219-.281-1.344 0-2.031 1.078-.687 1.062-.687 3.156t.687 3.172q.688 1.062 2.031 1.062.625 0 1.219-.265.594-.281 1.219-.86z"/><text x="359.5" y="32.78" fill="#D9B8FF" font-family="Helvetica" font-size="17" textLength="71">resource</text><path fill="none" d="m312.81 225.99-.71 140.89m.8-158.89-6.09 17.97 12 .06z" style="stroke:#ffaf37;stroke-width:2"/><g fill="none"><path d="M366.503 63.557c-13.27 30.52-31.873 73.343-45.153 103.913" style="stroke:#ffaf37;stroke-width:2"/><path d="M373.68 47.05 361 61.165l11.005 4.785z" style="stroke:#ffaf37;stroke-width:2"/></g><path fill="none" d="M312 425.42v102.41m0-120.41-6 18h12z" style="stroke:#ffaf37;stroke-width:2"/><g fill="none"><path d="M156.18 418.855c37.1 30.52 95.31 78.415 132.46 108.975" style="stroke:#ffaf37;stroke-width:2"/><path d="m142.28 407.42 10.089 16.069 7.624-9.267z" style="stroke:#ffaf37;stroke-width:2"/></g><path fill="none" d="M432.258 323.345c-25.64 47.7-83.978 156.215-109.838 204.315m118.36-220.17-13.807 13.014 10.57 5.681zM391.71 64.302c12.73 47.71 41.28 154.678 54.12 202.778M387.07 46.91l-1.157 18.938 11.595-3.093z" style="stroke:#ffaf37;stroke-width:2"/></svg>
